assets/assets/fonts/broken-image.svg

<?xml version="1.0" standalone="no"?><!DOCTYPE svg PUBLIC "-//W3C//DTD SVG 1.1//EN"
    "http://www.w3.org/Graphics/SVG/1.1/DTD/svg11.dtd">
<svg t="1638788792294" class="icon" viewBox="0 0 1024 1024" version="1.1"
    xmlns="http://www.w3.org/2000/svg" p-id="2345" xmlns:xlink="http://www.w3.org/1999/xlink"
    width="64" height="64">
  <path
      d="M896 213.333333v281.6l-128-128-170.666667 170.666667-170.666666-170.666667-170.666667 170.666667-128-128V213.333333c0-46.933333 38.4-85.333333 85.333333-85.333333h597.333334c46.933333 0 85.333333 38.4 85.333333 85.333333z m-128 273.066667l128 128V810.666667c0 46.933333-38.4 85.333333-85.333333 85.333333H213.333333c-46.933333 0-85.333333-38.4-85.333333-85.333333V529.066667l128 128 170.666667-170.666667 170.666666 170.666667 170.666667-170.666667z"
      p-id="2346" fill="#bfbfbf"></path>
</svg>

<svg class="icon" viewBox="0 0 1024 1024" xmlns="http://www.w3.org/2000/svg" width="64" height="64"><path d="M896 213.333v281.6l-128-128L597.333 537.6 426.667 366.933 256 537.6l-128-128V213.333C128 166.4 166.4 128 213.333 128h597.334C857.6 128 896 166.4 896 213.333zM768 486.4l128 128v196.267C896 857.6 857.6 896 810.667 896H213.333C166.4 896 128 857.6 128 810.667v-281.6l128 128L426.667 486.4l170.666 170.667L768 486.4z" fill="#bfbfbf"/></svg>
